X: 33010
T: Pretzel Sticks And Water, The
R: hornpipe
M: 4/4
K: Eminor
|:EGBG e2 dB|zBAB GA (3FED|GBdB g2fd-|dB z B ABGF|
EGBG e2 dB|zBAB GA (3FED|GBdB gBfe|dBAB GAFG:|
|:EBGe Bgeb|z2 ag fdAF|DAFd Afdb-|bagf geBG|
EBGe Bgeb|z2 ag fdAF|gdBG eedB-|BdBA GAFG:|

